assets/svg/send-email.svg

<svg width="20" height="17" viewBox="0 0 20 17" fill="none" xmlns="http://www.w3.org/2000/svg">
<path d="M16.0345 17L14.6552 15.6193L16.2069 13.9797H12.069V11.9949H16.2069L14.6552 10.3553L16.0345 8.97462L20 12.9442L16.0345 17ZM1.98276 13.9797C1.46552 13.9797 0.948276 13.8071 0.603448 13.3756C0.172414 12.9442 0 12.5127 0 11.9949V1.98477C0 1.46701 0.172414 0.949239 0.603448 0.604061C1.03448 0.258883 1.46552 0 1.98276 0H15C15.5172 0 16.0345 0.172589 16.3793 0.604061C16.8103 1.03553 16.9828 1.46701 16.9828 1.98477V7.07614C16.8103 7.07614 16.6379 6.98985 16.4655 6.98985C16.2931 6.98985 16.1207 6.98985 15.9483 6.98985C15.7759 6.98985 15.6034 6.98985 15.431 6.98985C15.2586 6.98985 15.0862 6.98985 14.9138 7.07614V3.36548L8.27586 7.93909L1.98276 3.36548V11.9086H10.0862C10.0862 12.0812 10 12.2538 10 12.4264C10 12.599 10 12.7716 10 12.9442C10 13.1168 10 13.2893 10 13.4619C10 13.6345 10 13.8071 10.0862 13.9797H1.98276ZM3.44828 1.98477L8.36207 5.52284L13.5345 1.98477H3.44828Z" fill="#3D70D2"/>
</svg>

<svg xmlns="http://www.w3.org/2000/svg" width="20" height="17" viewBox="0 0 20 17"><path d="m16.035 17-1.38-1.38 1.552-1.64h-4.138v-1.985h4.138l-1.552-1.64 1.38-1.38L20 12.945zM1.983 13.98c-.517 0-1.035-.173-1.38-.604-.43-.432-.603-.863-.603-1.381V1.985C0 1.467.172.949.603.605 1.034.258 1.466 0 1.983 0H15c.517 0 1.035.173 1.38.604.43.432.603.863.603 1.38v5.092c-.173 0-.345-.086-.518-.086h-1.034c-.172 0-.345 0-.517.086v-3.71L8.276 7.938 1.983 3.365v8.544h8.103c0 .172-.086.345-.086.517v1.036c0 .172 0 .345.086.518zM3.448 1.985l4.914 3.538 5.172-3.538z"/></svg>
